X:1
T:Title
%%score { ( 1 3 ) | 2 }
L:1/8
M:3/4
K:Db
V:1 treble nm="Grand Piano"
V:3 treble 
V:2 bass 
V:1
 z2 z2[Q:1/4=100] [DF]>[EG] | [FA]3 [Fd] [Gc][GB] | [FA]2 F2 D>E | [DF] [DA]3 [CE]>[CA] | %4
[M:2/4] D4 |[M:1/4] F>[EG] |[M:3/4] [FA]3 [Fd] [Ac][GB] | [FA]2 F2 D>E | [DF] [DA]3 [CE]>[CA] | %9
[M:2/4] D4 |[M:4/4] z2 c6 | B>A [GB]2 [FA]4 | z2 B6 |[M:9/8] z2 c- c6 |[M:4/4] z2 d6 | %15
 [Ac]>[GB] [FA]2 F4 | D>E FA- A2 [CE][CA]- |[M:3/4] [CA]2 D4- | D2 z2 z2 |] %19
V:2
 z2 z2 [D,A,]>[D,A,] | [D,D]3 [D,D] [D,D][D,D] | [D,D]2 [D,A,D]2 [D,F,]>[D,G,D] | %3
 [A,,A,] [A,,F,]3 [A,,G,]>[A,,G,] |[M:2/4] [D,F,]4 |[M:1/4] [D,A,D]>[D,A,] | %6
[M:3/4] [D,D]3 [D,D] [D,D][D,D] | [D,D]2 [D,A,D]2 [D,F,]>[D,G,D] | %8
 [A,,A,] [A,,F,]3 [A,,G,]>[A,,G,] |[M:2/4] [D,F,]4 | %10
[M:4/4] [D,D]>[D,D][K:treble] [A,EG]>[A,E] [A,E]>[A,E] [A,E]>[A,EG] | %11
 [A,CG]>[A,CG][K:bass] [D,D]2 [D,D]4 | [D,D]>[D,D] [G,DG]>[G,D] [G,D]>[G,D] [E,E]>[E,E] | %13
[M:9/8] [E,E]>[E,E][K:treble][A,EA]- [A,EA] [A,E]2 [A,E]3 | %14
[M:4/4] [A,CG]>[A,CG][K:bass] [D,D]>[D,D] [D,D]>[D,D] [D,D]>[D,D] | [D,D]>[D,D] [D,D]2 [D,A,D]4 | %16
 [F,A,]>[G,B,D][K:treble] [A,D][A,F]- [A,F]2[K:bass] [A,,G,][A,,G,]- |[M:3/4] [A,,G,]2 [D,F,]4- | %18
 [D,F,]2 z2 z2 |] %19
V:3
 x6 | x6 | x6 | x6 |[M:2/4] x4 |[M:1/4] x2 |[M:3/4] x6 | x6 | x6 |[M:2/4] x4 | %10
[M:4/4] [FA]>[FA] z z/ G/ G>G G>c | x8 | [FA]>[FA] z z/ G/ G>G =G>[GB] | %13
[M:9/8] [=Gc]3/2.[Gd]3/2 z A2 _G3 |[M:4/4] B>A F>F F>F F>[Fd] | x8 | x8 |[M:3/4] x6 | x6 |] %19

